client/public/images/icon_elearning.svg

<svg height="20" viewBox="0 0 20 20" width="20" xmlns="http://www.w3.org/2000/svg"><g fill="none" stroke="#fff" transform="scale(.83333333)"><path d="m20.25 5.251v9a1.5 1.5 0 0 1 -1.5 1.5h-13.5a1.5 1.5 0 0 1 -1.5-1.5v-9"/><path d="m21.748 23.251h-19.496a1.5 1.5 0 0 1 -1.342-2.17l1.836-3.671a3 3 0 0 1 2.683-1.659h13.142a3 3 0 0 1 2.683 1.659l1.836 3.671a1.5 1.5 0 0 1 -1.342 2.17z"/><path d="m10.5 20.251h3"/><path d="m12 2.412s.477-1.5 4.561-1.66a.635.635 0 0 1 .689.585v6.174a.634.634 0 0 1 -.656.58c-4.11.147-4.594 1.66-4.594 1.66v-7.339s-.477-1.505-4.561-1.66a.635.635 0 0 0 -.689.585v6.174a.634.634 0 0 0 .656.58c4.11.147 4.594 1.66 4.594 1.66"/></g></svg>

<svg
  xmlns="http://www.w3.org/2000/svg"
  version="1.1"
  viewBox="0 0 20 20"
  width="20"
  height="20"
>
  <g transform="matrix(0.8333333333333334,0,0,0.8333333333333334,0,0)">
    <path
      d="M20.25,5.251v9a1.5,1.5,0,0,1-1.5,1.5H5.25a1.5,1.5,0,0,1-1.5-1.5v-9"
      fill="none"
      stroke="white"
      strokeLinecap="round"
      strokeLinejoin="round"
      strokeWidth="1.5"
    ></path>
    <path
      d="M21.748,23.251H2.252A1.5,1.5,0,0,1,.91,21.081L2.746,17.41a3,3,0,0,1,2.683-1.659H18.571a3,3,0,0,1,2.683,1.659l1.836,3.671A1.5,1.5,0,0,1,21.748,23.251Z"
      fill="none"
      stroke="white"
      strokeLinecap="round"
      strokeLinejoin="round"
      strokeWidth="1.5"
    ></path>
    <path
      d="M10.5 20.251L13.5 20.251"
      fill="none"
      stroke="white"
      strokeLinecap="round"
      strokeLinejoin="round"
      strokeWidth="1.5"
    ></path>
    <path
      d="M12,2.412s.477-1.5,4.561-1.66a.635.635,0,0,1,.689.585V7.511a.634.634,0,0,1-.656.58C12.484,8.238,12,9.751,12,9.751V2.412S11.523.907,7.439.752a.635.635,0,0,0-.689.585V7.511a.634.634,0,0,0,.656.58C11.516,8.238,12,9.751,12,9.751"
      fill="none"
      stroke="white"
      strokeLinecap="round"
      strokeLinejoin="round"
      strokeWidth="1.5"
    ></path>
  </g>
</svg>
